src/components/footer/img/email.svg

<svg version="1.1"  xmlns="http://www.w3.org/2000/svg" xmlns:xlink="http://www.w3.org/1999/xlink" x="0px" y="0px"
	 viewBox="0 0 24 18" xml:space="preserve">
<path d="M21.8906 0H2.10938C0.946266 0 0 1.03587 0 2.30913V15.6909C0 16.9641 0.946266 18 2.10938 18H21.8906C23.0537 18 24 16.9641 24 15.6909V2.30913C24 1.03587 23.0537 0 21.8906 0ZM21.6153 1.53942L21.3338 1.79604L12.8369 9.54141C12.3519 9.98343 11.648 9.98343 11.1631 9.54141L2.6662 1.79604L2.38467 1.53942H21.6153ZM1.40625 2.65077L8.32931 8.96151L1.40625 14.0053V2.65077ZM21.8906 16.4606H2.10938C1.76962 16.4606 1.48547 16.1954 1.42036 15.8443L9.45684 9.98928L10.2633 10.7244C10.7664 11.183 11.3833 11.4124 12 11.4124C12.6168 11.4124 13.2336 11.183 13.7368 10.7244L14.5433 9.98928L22.5797 15.8442C22.5145 16.1954 22.2304 16.4606 21.8906 16.4606ZM22.5938 14.0053L15.6707 8.96157L22.5938 2.65077V14.0053Z" fill="white"/>
</svg>

<svg width="24" height="18" fill="none" xmlns="http://www.w3.org/2000/svg" viewBox="0 0 24 18">
  <path d="M21.89 0H2.11C.945 0 0 1.036 0 2.31v13.38C0 16.965.946 18 2.11 18h19.78c1.164 0 2.11-1.036 2.11-2.31V2.31C24 1.035 23.054 0 21.89 0zm-.275 1.54l-.281.256-8.497 7.745a1.222 1.222 0 01-1.674 0L2.666 1.796l-.281-.257h19.23zM1.406 2.65L8.33 8.963l-6.923 5.043V2.651zm20.485 13.81H2.109c-.34 0-.624-.265-.689-.616L9.457 9.99l.806.735a2.57 2.57 0 001.737.688 2.57 2.57 0 001.737-.688l.806-.735 8.037 5.855c-.065.351-.35.617-.69.617zm.703-2.455L15.67 8.962l6.923-6.311v11.354z" fill="#fff"/>
</svg>
